src/icons/file-sln.svg

<?xml version="1.0" encoding="UTF-8" standalone="no"?>
<svg
   version="1.2"
   viewBox="0 0 16 16"
   width="16"
   height="16"
   id="svg1"
   sodipodi:docname="cs.svg"
   inkscape:version="1.4 (e7c3feb100, 2024-10-09)"
   xmlns:inkscape="http://www.inkscape.org/namespaces/inkscape"
   xmlns:sodipodi="http://sodipodi.sourceforge.net/DTD/sodipodi-0.dtd"
   xmlns="http://www.w3.org/2000/svg"
   xmlns:svg="http://www.w3.org/2000/svg">
  <defs
     id="defs1" />
  <sodipodi:namedview
     id="namedview1"
     pagecolor="#505050"
     bordercolor="#eeeeee"
     borderopacity="1"
     inkscape:showpageshadow="0"
     inkscape:pageopacity="0"
     inkscape:pagecheckerboard="0"
     inkscape:deskcolor="#505050"
     inkscape:zoom="34.5"
     inkscape:cx="8"
     inkscape:cy="8"
     inkscape:window-width="1326"
     inkscape:window-height="755"
     inkscape:window-x="20"
     inkscape:window-y="52"
     inkscape:window-maximized="0"
     inkscape:current-layer="svg1" />
  <title
     id="title1">hexagon-svg</title>
  <style
     id="style1">
		.s0 { fill: #5BAFD4 }
		.s1 { fill: #000000 }
	</style>
  <path
     id="path1"
     class="s0"
     d="M 8.0253906 0.34960938 C 7.8420573 0.34960938 7.6666667 0.36705729 7.5 0.40039062 C 7.1 0.50039062 6.7996094 0.69960937 6.0996094 1.0996094 L 3 2.9003906 C 2.3 3.3003906 1.8992187 3.5007813 1.6992188 3.8007812 C 1.4325521 4.0674479 1.2658854 4.3658854 1.1992188 4.6992188 C 0.99921875 5.0992187 1 5.5007813 1 6.3007812 L 1 9.6992188 C 1 10.499219 0.99960937 11.000391 1.0996094 11.400391 C 1.2329427 11.733724 1.4325521 12.034115 1.6992188 12.300781 C 1.8992188 12.600781 2.3 12.799219 3 13.199219 L 6 14.900391 C 6.7 15.300391 7.1003906 15.499609 7.4003906 15.599609 C 7.8003906 15.666276 8.1666667 15.666276 8.5 15.599609 C 8.9 15.499609 9.2003906 15.300391 9.9003906 14.900391 L 13 13.099609 C 13.7 12.699609 14.100781 12.499219 14.300781 12.199219 C 14.567448 11.932552 14.734115 11.634115 14.800781 11.300781 C 15.000781 10.900781 15 10.499219 15 9.6992188 L 15 6.3007812 C 15 5.5007812 15.000391 4.9996094 14.900391 4.5996094 C 14.767057 4.266276 14.567448 3.9658854 14.300781 3.6992188 C 14.100781 3.3992187 13.7 3.2007812 13 2.8007812 L 10 1.0996094 C 9.3 0.69960938 8.8996094 0.50039062 8.5996094 0.40039062 C 8.3996094 0.36705729 8.208724 0.34960938 8.0253906 0.34960938 z M 10.300781 4.6992188 C 10.500781 4.6992188 10.667448 4.7670573 10.800781 4.9003906 C 10.934115 5.033724 11 5.2333333 11 5.5 L 11 5.6992188 L 10.900391 6.4003906 L 11.900391 6.4003906 L 12 5.5996094 C 12.066667 4.9996094 12.367057 4.6992187 12.900391 4.6992188 C 13.167057 4.6992188 13.333724 4.7670573 13.400391 4.9003906 C 13.533724 5.033724 13.599609 5.2333333 13.599609 5.5 L 13.599609 5.5996094 L 13.599609 5.6992188 L 13.5 6.4003906 L 13.699219 6.4003906 C 13.965885 6.4003906 14.167448 6.466276 14.300781 6.5996094 C 14.434115 6.666276 14.5 6.8 14.5 7 C 14.5 7.2666667 14.399219 7.466276 14.199219 7.5996094 C 14.065885 7.7329427 13.899219 7.8007812 13.699219 7.8007812 L 13.400391 7.8007812 L 13.199219 9 L 13.400391 9 C 13.667057 9 13.833724 9.0658854 13.900391 9.1992188 C 14.033724 9.2658854 14.099609 9.3996094 14.099609 9.5996094 C 14.099609 9.866276 14.033724 10.065885 13.900391 10.199219 C 13.767057 10.332552 13.567448 10.400391 13.300781 10.400391 L 13.099609 10.400391 L 13 11 C 12.933333 11.666667 12.632943 12 12.099609 12 C 11.832943 12 11.633333 11.934115 11.5 11.800781 C 11.366667 11.667448 11.300781 11.465885 11.300781 11.199219 L 11.300781 10.900391 L 11.400391 10.400391 L 10.5 10.400391 L 10.400391 11 C 10.333724 11.666667 10.000391 12 9.4003906 12 C 9.2003906 12 9.033724 11.934115 8.9003906 11.800781 C 8.7670573 11.667448 8.6992188 11.465885 8.6992188 11.199219 L 8.6992188 10.900391 L 8.8007812 10.400391 L 8.5996094 10.400391 C 8.066276 10.400391 7.8007812 10.165885 7.8007812 9.6992188 C 7.8007812 9.4325521 7.8666667 9.2658854 8 9.1992188 C 8.2 9.0658854 8.3996094 9 8.5996094 9 L 9 9 L 9.0996094 7.8007812 L 8.9003906 7.8007812 C 8.633724 7.8007813 8.4341146 7.7329427 8.3007812 7.5996094 C 8.1674479 7.466276 8.0996094 7.2996094 8.0996094 7.0996094 C 8.0996094 6.8996094 8.2003906 6.7329427 8.4003906 6.5996094 C 8.533724 6.466276 8.7333333 6.4003906 9 6.4003906 L 9.3007812 6.4003906 L 9.4003906 5.5996094 C 9.4670573 4.9996094 9.7674479 4.6992188 10.300781 4.6992188 z M 4.8007812 5.0996094 C 5.1341146 5.0996094 5.4325521 5.1674479 5.6992188 5.3007812 C 6.0325521 5.3674479 6.3 5.466276 6.5 5.5996094 C 6.7666667 5.7996094 6.966276 5.9992188 7.0996094 6.1992188 C 7.2329427 6.3992188 7.3007812 6.633724 7.3007812 6.9003906 C 7.3007812 7.1003906 7.2 7.2670573 7 7.4003906 C 6.8666667 7.533724 6.7 7.5996094 6.5 7.5996094 C 6.2333333 7.5996094 6.0666667 7.5666667 6 7.5 C 5.8666667 7.3666667 5.7658854 7.2329427 5.6992188 7.0996094 C 5.6992188 6.966276 5.666276 6.8674479 5.5996094 6.8007812 L 5.3007812 6.5 C 5.1674479 6.4333333 5.0007813 6.4003906 4.8007812 6.4003906 C 4.5341146 6.4003906 4.2996094 6.466276 4.0996094 6.5996094 C 3.8329427 6.7329427 3.6333333 6.9674479 3.5 7.3007812 C 3.3666667 7.6341146 3.3007812 8.066276 3.3007812 8.5996094 C 3.3007813 9.1329427 3.3666667 9.5670573 3.5 9.9003906 C 3.6333333 10.233724 3.8329427 10.466276 4.0996094 10.599609 C 4.2996094 10.732943 4.5341146 10.800781 4.8007812 10.800781 C 5.0007813 10.800781 5.1674479 10.765885 5.3007812 10.699219 C 5.3674479 10.632552 5.466276 10.566667 5.5996094 10.5 C 5.666276 10.366667 5.6992187 10.232943 5.6992188 10.099609 C 5.7658854 9.966276 5.8666667 9.8674479 6 9.8007812 C 6.0666667 9.6674479 6.2333333 9.5996094 6.5 9.5996094 C 6.7 9.5996094 6.8666667 9.6674479 7 9.8007812 C 7.2 9.9341146 7.3007813 10.133724 7.3007812 10.400391 C 7.3007812 10.600391 7.2329427 10.8 7.0996094 11 C 6.966276 11.266667 6.7666667 11.466276 6.5 11.599609 C 6.3 11.732943 6.0325521 11.866667 5.6992188 12 C 5.4325521 12.066667 5.1341146 12.099609 4.8007812 12.099609 C 4.4007813 12.099609 3.9996094 12.066667 3.5996094 12 C 3.266276 11.866667 2.9329427 11.667057 2.5996094 11.400391 C 2.266276 11.133724 2.0007812 10.767448 1.8007812 10.300781 C 1.6007813 9.8341146 1.5 9.266276 1.5 8.5996094 C 1.5 7.9329427 1.6007812 7.3670573 1.8007812 6.9003906 C 2.0007813 6.433724 2.266276 6.1003906 2.5996094 5.9003906 C 2.9329427 5.633724 3.266276 5.4341146 3.5996094 5.3007812 C 3.9996094 5.1674479 4.4007813 5.0996094 4.8007812 5.0996094 z M 10.800781 7.8007812 L 10.599609 9 L 11.599609 9 L 11.699219 7.8007812 L 10.800781 7.8007812 z " />
</svg>

<svg xmlns="http://www.w3.org/2000/svg" width="16" height="16" version="1.2"><path d="M8.025.35Q7.751.35 7.5.4c-.4.1-.7.3-1.4.7L3 2.9c-.7.4-1.1.6-1.3.9a1.74 1.74 0 0 0-.5.9c-.2.4-.2.8-.2 1.6v3.4c0 .8 0 1.3.1 1.7q.2.501.6.9c.2.3.6.5 1.3.9l3 1.7c.7.4 1.1.6 1.4.7q.6.099 1.1 0c.4-.1.7-.3 1.4-.7l3.1-1.8c.7-.4 1.1-.6 1.3-.9q.4-.4.5-.9c.2-.4.2-.8.2-1.6V6.3c0-.8 0-1.3-.1-1.7a2.7 2.7 0 0 0-.6-.9c-.2-.3-.6-.5-1.3-.9l-3-1.7C9.3.7 8.9.5 8.6.4Q8.3.35 8.025.35m2.276 4.35q.3 0 .5.2t.199.6v.2l-.1.7h1l.1-.8q.1-.9.9-.9.4 0 .5.2.2.2.2.6v.2l-.1.7h.2q.4 0 .6.2.2.1.2.4 0 .4-.3.6a.68.68 0 0 1-.5.2h-.3L13.2 9h.2q.4 0 .5.2.2.1.2.4 0 .399-.2.6t-.6.2h-.2l-.1.6q-.1 1-.9 1-.4 0-.6-.2t-.2-.6v-.3l.1-.5h-.9l-.1.6q-.1 1-1 1a.68.68 0 0 1-.5-.2q-.2-.2-.2-.6v-.3l.1-.5h-.2q-.8 0-.8-.7 0-.4.2-.5.3-.2.6-.2H9l.1-1.2h-.2q-.399 0-.6-.2a.68.68 0 0 1-.2-.5q0-.3.3-.5.2-.2.6-.2h.3l.1-.8q.1-.9.9-.9m-5.5.4q.5 0 .898.2.501.1.801.3.4.3.6.6t.2.7q0 .3-.3.5-.2.2-.5.2-.4 0-.5-.1a1.6 1.6 0 0 1-.3-.4q0-.2-.1-.3l-.3-.3q-.2-.1-.5-.1-.4 0-.7.2-.4.2-.6.7t-.2 1.3.2 1.3.6.7q.3.2.7.2.3 0 .5-.1.1-.1.3-.2a.9.9 0 0 0 .1-.4.65.65 0 0 1 .3-.3q.1-.2.5-.2.3 0 .5.2.3.201.3.6 0 .3-.2.6a1.3 1.3 0 0 1-.6.6q-.3.2-.8.4-.4.1-.9.1a7.3 7.3 0 0 1-1.2-.1 4 4 0 0 1-1-.6q-.5-.4-.8-1.1t-.3-1.7.3-1.7.8-1a4 4 0 0 1 1-.6q.6-.2 1.2-.2m6 2.7L10.6 9h1l.1-1.2z" style="fill:#5bafd4"/></svg>
